!!!!SEGMENT: Jos/Jos0602c-Missa_Lhomme_arme_sexti_toni-Credo.krn
!!!COM: Josquin des Prez
!!!CDT: ~1450-1521/08/27
!!!OPR: Missa L'homme arm&eacute; sexti toni
!!!ONM: 3
!!!OTL: Credo
!!!AGN: Mass; Credo
!!!SCT: NJE 6.2
!!!SCA: New Josquin Edition 6.2
!!!jrpid: Jos0602c
!!!voices: 4
!!!voices-OPR: 4(-6)
**kern	**text	**kern	**text	**kern	**text	**kern	**text
*staff4	*	*staff3	*	*staff2	*	*staff1	*
*Ivox	*	*Ivox	*	*Ivox	*	*Ivox	*
*I"Bassus	*	*I"Tenor	*	*I"Altus	*	*I"Superius	*
*I'B	*	*I'T	*	*I'A	*	*I'S	*
*>[A,B,C]	*	*>[A,B,C]	*	*>[A,B,C]	*	*>[A,B,C]	*
*>Patrem[A]	*	*>Patrem[A]	*	*>Patrem[A]	*	*>Patrem[A]	*
*>EtResurrexit[B]	*	*>EtResurrexit[B]	*	*>EtResurrexit[B]	*	*>EtResurrexit[B]	*
*>EtUnam[C]	*	*>EtUnam[C]	*	*>EtUnam[C]	*	*>EtUnam[C]	*
*clefF4	*	*clefGv2	*	*clefGv2	*	*clefG2	*
*k[b-]	*	*k[b-]	*	*k[b-]	*	*k[b-]	*
*>A	*	*>A	*	*>A	*	*>A	*
*M3/1	*	*M3/1	*	*M3/1	*	*M3/1	*
*met(O)	*	*met(O)	*	*met(O)	*	*met(O)	*
=1-	=1-	=1-	=1-	=1-	=1-	=1-	=1-
!!section: Patrem
!!!OMD: Patrem
!LO:TX:Y=20:X=-50:t=[B add E-flat below staff to key sig.]	!	!	!	!	!	!	!
0.r	.	0.r	.	0F	Pa-	0.r	.
.	.	.	.	1F	-trem	.	.
=2	=2	=2	=2	=2	=2	=2	=2
0.r	.	0.r	.	1F	om-	0f	Pa-
.	.	.	.	1.B-	.	.	.
.	.	.	.	.	.	1f	-trem
.	.	.	.	2A/	-ni-	.	.
=3	=3	=3	=3	=3	=3	=3	=3
0.r	.	0.r	.	1A	-po-	1f	om-
.	.	.	.	1.G	-ten-	1.b-	.
.	.	.	.	4F/	.	2a/	-ni-
.	.	.	.	4E/	.	.	.
=4	=4	=4	=4	=4	=4	=4	=4
0.r	.	0.r	.	2D/	.	1a	-po-
.	.	.	.	1C	.	.	.
.	.	.	.	.	.	1.g	-ten-
.	.	.	.	2D/	.	.	.
.	.	.	.	1E	.	.	.
.	.	.	.	.	.	4f/	.
.	.	.	.	.	.	4e/	.
=5	=5	=5	=5	=5	=5	=5	=5
0.r	.	0.r	.	0F	-tem,	2d/	.
.	.	.	.	.	.	2c/	.
.	.	.	.	.	.	0f	-tem,
.	.	.	.	1r	.	.	.
=6	=6	=6	=6	=6	=6	=6	=6
0.r	.	0.r	.	[0.c	fac-	1.e	fac-
.	.	.	.	.	.	2f/	.
.	.	.	.	.	.	1g	.
=7	=7	=7	=7	=7	=7	=7	=7
0.r	.	0.r	.	0c]	.	1.a	-to-
.	.	.	.	.	.	1g	-rem
.	.	.	.	1c	-to-	.	.
.	.	.	.	.	.	4f/	.
.	.	.	.	.	.	4e/	.
=8	=8	=8	=8	=8	=8	=8	=8
0.r	.	0.r	.	1B-	-rem	1d	.
.	.	.	.	2A/	ce-	1c	ce-
.	.	.	.	2.F/	.	.	.
.	.	.	.	.	.	1f	-li
.	.	.	.	4E/	.	.	.
.	.	.	.	2D/	.	.	.
=9	=9	=9	=9	=9	=9	=9	=9
0.r	.	0.r	.	2C/	.	2e/	et
.	.	.	.	2F/	-li	1d	ter-
.	.	.	.	2G/	et	.	.
.	.	.	.	1A	ter-	2c/	.
.	.	.	.	.	.	1B-	.
.	.	.	.	2G/	.	.	.
=10	=10	=10	=10	=10	=10	=10	=10
0.r	.	0.r	.	0A	-re,	1A	-re,
.	.	.	.	.	.	1r	.
.	.	.	.	2r	.	1c	vi-
.	.	.	.	[2F/	vi-	.	.
=11	=11	=11	=11	=11	=11	=11	=11
0.r	.	0.r	.	2F/]	.	2d/	-si-
.	.	.	.	2G/	-si-	1e	-bi-
.	.	.	.	1A	-bi-	.	.
.	.	.	.	.	.	2f/	-li-
.	.	.	.	2B-\	-li-	1g	-um
.	.	.	.	[2c\	-um	.	.
=12	=12	=12	=12	=12	=12	=12	=12
0.r	.	0.r	.	2c\]	.	1a	om-
.	.	.	.	2F/	om-	.	.
.	.	.	.	2E/	-ni-	2g/	-ni-
.	.	.	.	2.F/	-um,	2.a/	-um
.	.	.	.	4G/	.	4g/	.
.	.	.	.	2A/	.	4f/	.
.	.	.	.	.	.	4e/	.
=13	=13	=13	=13	=13	=13	=13	=13
0.r	.	0.r	.	2B-\	.	2d/	.
.	.	.	.	2c\	.	1c	.
.	.	.	.	1F	.	.	.
.	.	.	.	.	.	2.f/	et
.	.	.	.	2.B-\	et	.	.
.	.	.	.	.	.	4e/	.
.	.	.	.	.	.	4d/	.
.	.	.	.	4A/	.	4c/	.
=14	=14	=14	=14	=14	=14	=14	=14
0.r	.	0.r	.	4G/	.	2B-/	.
.	.	.	.	4F/	.	.	.
.	.	.	.	2c\	.	1A	.
.	.	.	.	1F	.	.	.
.	.	.	.	.	.	2.d/	in-
.	.	.	.	2.d\	in-	.	.
.	.	.	.	.	.	4c/	.
.	.	.	.	.	.	4B-/	.
.	.	.	.	4c\	.	4A/	.
=15	=15	=15	=15	=15	=15	=15	=15
0.r	.	0.r	.	4B-\	.	2G/	.
.	.	.	.	4A/	.	.	.
.	.	.	.	2c\	.	1F	.
.	.	.	.	1F	.	.	.
.	.	.	.	.	.	2.f/	vi-
.	.	.	.	1d	-vi-	.	.
.	.	.	.	.	.	4g/	.
.	.	.	.	.	.	2b-\	.
=16	=16	=16	=16	=16	=16	=16	=16
0.r	.	0.r	.	2c\	-si-	2a/	-si-
.	.	.	.	1B-\	-bi-	1g/	-bi-
.	.	.	.	2A/	.	1f	.
.	.	.	.	1G	-li-	.	.
.	.	.	.	.	.	2e/	-li-
=17	=17	=17	=17	=17	=17	=17	=17
0FF	Et	[0.F	Et	0F	-um.	0.f	-um.
.	.	.	.	.	.	.	.
1FF	in	.	.	1c	Et	.	.
=18	=18	=18	=18	=18	=18	=18	=18
1.BB-	u-	0.F]	.	2B-	in	1r	.
.	.	.	.	1d	u-	.	.
.	.	.	.	.	.	1r	.
2C/	.	.	.	4c\	.	.	.
.	.	.	.	4B-\	.	.	.
1D	-num	.	.	1A	.	1f	Et
=19	=19	=19	=19	=19	=19	=19	=19
1E-	do-	[0.B-	in	1G	-num	1g	in
2D\	.	.	.	1r	.	2f/	.
1E-i	.	.	.	.	.	1g	u-
.	.	.	.	1E-i	do-	.	.
4D\	-mi-	.	.	.	.	4f/	.
4C/	.	.	.	.	.	4e-i/	.
=20	=20	=20	=20	=20	=20	=20	=20
1BB-	-num	0.B-]	.	1F	.	2.d/	-num
.	.	.	.	.	.	4e-i/	.
1r	.	.	.	2D/	.	4f/	.
.	.	.	.	.	.	4d/	.
.	.	.	.	2.E-i/	.	2.g/	do-
1EE-	Je-	.	.	.	.	.	.
.	.	.	.	4F/	.	4f/	.
.	.	.	.	2G/	.	4e-i/	-mi-
.	.	.	.	.	.	4d/	.
=21	=21	=21	=21	=21	=21	=21	=21
2FF/	-sum,	[0.A	u-	2.A/	.	1c	-num,
2.F\	Je-	.	.	.	.	.	.
.	.	.	.	4B-\	.	.	.
.	.	.	.	2c\	-mi-	2r	.
4E\	.	.	.	.	.	.	.
2D\	.	.	.	2d\	-num,	2.f/	Je-
2C/	.	.	.	2r	.	.	.
.	.	.	.	.	.	4e/	.
2D\	.	.	.	2D/	Je-	2d/	.
=22	=22	=22	=22	=22	=22	=22	=22
2AA/	-sum	0.A]	.	2E/	.	2c/	-sum
2.F\	Chri-	.	.	2.D/	-sum	2d/	Chri-
.	.	.	.	.	.	2A/	-stum,
4E\	.	.	.	4C/	.	.	.
2D\	.	.	.	2D/	.	2f/	Chri-
2C/	.	.	.	2E/	Chri-	2e/	.
2D\	.	.	.	2F/	.	[2d/	.
=23	=23	=23	=23	=23	=23	=23	=23
2GG/	-stum,	[0.G	.	2.G/	.	4d/]	.
.	.	.	.	.	.	4c/	.
2.E-\	fi-	.	.	.	.	4B-/	.
.	.	.	.	4A/	.	4A/	.
.	.	.	.	2B-\	.	2G/	-stum
4D\	.	.	.	.	.	.	.
2C/	.	.	.	2c\	-stum,	2.e-/	fi-
2BB-/	.	.	.	2r	.	.	.
.	.	.	.	.	.	4d/	.
2C/	-li-	.	.	2C/	fi-	2c/	.
=24	=24	=24	=24	=24	=24	=24	=24
2GG/	-um	0.G]	.	2D/	-li-	2B-/	.
2.E-\	de-	.	.	2.C/	-um	2c/	-li-
.	.	.	.	.	.	2G/	-um
4D\	.	.	.	4BB-/	.	.	.
2C/	.	.	.	2C/	.	2e-i/	de-
2BB-/	.	.	.	2D/	de-	2d/	.
2C/	.	.	.	2E/	.	[2c/	.
=25	=25	=25	=25	=25	=25	=25	=25
2FF/	-i	[0.F	-num...	2.F/	.	4c/]	.
.	.	.	.	.	.	4B-/	.
2.D\	u-	.	.	.	.	4A/	.
.	.	.	.	4G/	.	4G/	.
.	.	.	.	2A/	.	2F/	-i
4C/	.	.	.	.	.	.	.
2BB-/	-ni-	.	.	2B-\	-i	2.f/	u-
2AA/	-ge-	.	.	2c\	u-	.	.
.	.	.	.	.	.	4e/	.
2BB-/	-ni-	.	.	2d\	-ni-	2d/	-ni-
=26	=26	=26	=26	=26	=26	=26	=26
0.FF	-tum.	0.F]	.	2A/	-ge-	2c/	-ge-
.	.	.	.	2B-\	-ni-	2d/	-ni-
.	.	.	.	[0c	-tum.	0A	-tum.
=27	=27	=27	=27	=27	=27	=27	=27
2r	.	0.r	.	1c]	.	0.r	.
1FF	Et	.	.	.	.	.	.
.	.	.	.	2r	.	.	.
2BB-/	ex	.	.	1F	Et	.	.
2AA/	pa-	.	.	.	.	.	.
2GG/	-tre	.	.	2B-\	ex	.	.
=28	=28	=28	=28	=28	=28	=28	=28
2.C/	na-	0.r	.	2A/	pa-	0.r	.
.	.	.	.	2G/	-tre	.	.
4BB-/	.	.	.	.	.	.	.
4AA/	.	.	.	2.c\	na-	.	.
4GG/	.	.	.	.	.	.	.
1FF	-tum	.	.	.	.	.	.
.	.	.	.	4B-\	.	.	.
.	.	.	.	4A/	.	.	.
.	.	.	.	4G/	.	.	.
2BB-/	an-	.	.	[2F/	-tum	.	.
=29	=29	=29	=29	=29	=29	=29	=29
2AA/	-te	0.r	.	2F/]	.	0.r	.
2GG/	.	.	.	2B-\	an-	.	.
2.C/	om-	.	.	4A/	-te	.	.
.	.	.	.	4G/	.	.	.
.	.	.	.	2.c\	om-	.	.
4D\	.	.	.	.	.	.	.
2E\	-ni-	.	.	.	.	.	.
.	.	.	.	4B-\	.	.	.
2F\	-a	.	.	4A/	-ni-	.	.
.	.	.	.	4G/	.	.	.
=30	=30	=30	=30	=30	=30	=30	=30
2.D\	se-	0.r	.	4F/	-a	0.r	.
.	.	.	.	4E/	.	.	.
.	.	.	.	2.B-\	se-	.	.
4C/	.	.	.	.	.	.	.
4D\	.	.	.	.	.	.	.
4C/	.	.	.	4A/	.	.	.
4D\	.	.	.	1A	.	.	.
4AA/	.	.	.	.	.	.	.
4C/	.	.	.	.	.	.	.
4D\	.	.	.	.	.	.	.
2BB-/	-cu-	.	.	2G/	-cu-	.	.
=31	=31	=31	=31	=31	=31	=31	=31
0.AA	-la,	0.r	.	0A	-la,	1r	.
.	.	.	.	.	.	2r	.
.	.	.	.	.	.	2.cc\	Se-
.	.	.	.	2.c\	se-	.	.
.	.	.	.	.	.	4b-\	.
.	.	.	.	.	.	4a/	.
.	.	.	.	4B-\	.	4g/	.
=32	=32	=32	=32	=32	=32	=32	=32
0.r	.	0.r	.	4A/	.	4f/	.
.	.	.	.	4G/	.	4e/	.
.	.	.	.	1d	.	2.b-\	.
.	.	.	.	.	.	4a/	.
.	.	.	.	2c\	.	1a	.
.	.	.	.	1B-	-cu-	.	.
.	.	.	.	.	.	2g/	-cu-
=33	=33	=33	=33	=33	=33	=33	=33
2r	.	0c	De-	1A	-la.	1a	-la.
2F\	De-	.	.	.	.	.	.
2E\	-um	.	.	1r	.	2r	.
2F\	de	.	.	.	.	1a	De-
1D	de-	1F	-um	1r	.	.	.
.	.	.	.	.	.	2f/	.
=34	=34	=34	=34	=34	=34	=34	=34
1C	-o,	0.r	.	1c	De-	2a/	-um
.	.	.	.	.	.	2.g/	de
1r	.	.	.	2G/	-um	.	.
.	.	.	.	.	.	4f/	.
.	.	.	.	2A/	de	2e/	.
1r	.	.	.	2B-\	de-	2d/	de-
.	.	.	.	2c\	-o,	[2c/	-o
=35	=35	=35	=35	=35	=35	=35	=35
2.C/	lu-	0c	de-	0.r	.	4c/]	.
.	.	.	.	.	.	4d/	.
.	.	.	.	.	.	4e/	.
4D\	.	.	.	.	.	4f/	.
2E\	.	.	.	.	.	2g/	.
2F\	.	.	.	.	.	1a	lu-
1D	-men	1F	-o,	.	.	.	.
.	.	.	.	.	.	2f/	.
=36	=36	=36	=36	=36	=36	=36	=36
0.r	.	0.r	.	2.c\	lu-	2a/	-men
.	.	.	.	.	.	1g	de
.	.	.	.	4B-\	.	.	.
.	.	.	.	2G/	-men	.	.
.	.	.	.	2F/	de	1a	lu-
.	.	.	.	2A/	lu-	.	.
.	.	.	.	2B-\	.	4g/	-mi-
.	.	.	.	.	.	4f/	.
=37	=37	=37	=37	=37	=37	=37	=37
*M9/2	*	*	*	*	*	*	*
*met(3/2)	*	*	*	*	*	*	*
3.C/	de	0c	lu-	2c\	.	1e	-ne,
6D\	.	.	.	2G/	.	.	.
3E\	.	.	.	.	.	.	.
3%2F	lu-	.	.	4A/	.	1r	.
.	.	.	.	4G/	.	.	.
.	.	.	.	1c	.	.	.
3E\	.	.	.	.	.	.	.
3F\	.	1F	-men,	.	.	1r	.
3%2D	-mi-	.	.	.	.	.	.
.	.	.	.	2Bni\	-mi-	.	.
=38	=38	=38	=38	=38	=38	=38	=38
*M3/1	*	*	*	*	*	*	*
*met(O)	*	*	*	*	*	*	*
[0.C	ne,	2r	.	0c	-ne,	2r	.
.	.	1c	de-	.	.	1e	de-
.	.	2c\	-um	.	.	2e/	-um
.	.	1c	ve-	2r	.	1e	ve-
.	.	.	.	2G/	de-	.	.
=39	=39	=39	=39	=39	=39	=39	=39
0.C]	.	1c	-rum	2A/	-um	0e	-rum
.	.	.	.	2G/	ve-	.	.
.	.	2r	.	1c	-rum	.	.
.	.	2.c\	de	.	.	.	.
.	.	.	.	1r	.	2r	.
.	.	4B-\	.	.	.	.	.
.	.	4A/	.	.	.	2e/	de
.	.	4G/	.	.	.	.	.
=40	=40	=40	=40	=40	=40	=40	=40
2D\	de	2F/	de-	2r	.	2f/	de-
2C/	de-	2E/	-o	1c	de	2.g/	-o
1D	-o	1F	ve-	.	.	.	.
.	.	.	.	.	.	4f/L	.
.	.	.	.	2B-\	de-	1f/	ve-
1C	ve-	1G	.	2.c\	-o	.	.
.	.	.	.	.	.	2e/	.
.	.	.	.	4B-\	.	.	.
=41	=41	=41	=41	=41	=41	=41	=41
2.FF/	-ro,	[0.F	-ro,	4A/	.	1f	-ro,
.	.	.	.	4G/	.	.	.
.	.	.	.	2.F/	.	.	.
4GG/	.	.	.	.	.	.	.
2AA/	.	.	.	.	.	1r	.
.	.	.	.	4E/	.	.	.
2BB-/	.	.	.	2D/	.	.	.
2AA/	de	.	.	2C/	.	2c/	de
2BB-/	de-	.	.	2BB-/	.	2d/	de-
=42	=42	=42	=42	=42	=42	=42	=42
2FF/	-o	0F]	.	2.F/	ve-	2c/	-o
2.BB-/	ve-	.	.	.	.	2.d/	ve-
.	.	.	.	4E/	.	.	.
.	.	.	.	2D/	.	.	.
4AA/	.	.	.	.	.	4c/	.
2FF/	.	.	.	1C	.	2A/	.
1GG	.	2D/	ve-	.	.	1B-	.
.	.	2E/	.	2BB-/	.	.	.
=43	=43	=43	=43	=43	=43	=43	=43
0.FF	-ro.	0.F	-ro.	1C	-ro.	1A	-ro.
.	.	.	.	1r	.	2a/	Ge-
.	.	.	.	.	.	2a/	-ni-
.	.	.	.	2c\	Ge-	2a/	-tum
.	.	.	.	2d\	-ni-	2a/	non
=44	=44	=44	=44	=44	=44	=44	=44
0.r	.	0.r	.	2c\	-tum	4a/	fac-
.	.	.	.	.	.	4g/	.
.	.	.	.	2.d\	non	2.b-\	.
.	.	.	.	4c\	.	4a/	.
.	.	.	.	2A/	.	1a	.
.	.	.	.	1B-	fac-	.	.
.	.	.	.	.	.	2g/	.
=45	=45	=45	=45	=45	=45	=45	=45
0.r	.	0.r	.	1A	-tum,	2a/	-tum,
.	.	.	.	.	.	2.cc\	con-
.	.	.	.	2A/	con-	.	.
.	.	.	.	.	.	4b-\	-sub-
.	.	.	.	2A/	-sub-	2.a/	-stan-
.	.	.	.	2A/	-stan-	.	.
.	.	.	.	.	.	4g/	-ti-
.	.	.	.	2A/	-ti-	2f/	-a-
=46	=46	=46	=46	=46	=46	=46	=46
0.r	.	0.r	.	4A/	a-	2e/	-lem
.	.	.	.	4G/	-lem	.	.
.	.	.	.	2.B-\	pa-	1d	pa-
.	.	.	.	4A/	.	.	.
.	.	.	.	1A	.	2c/	.
.	.	.	.	.	.	1B-	.
.	.	.	.	2G/	.	.	.
=47	=47	=47	=47	=47	=47	=47	=47
0.r	.	0.r	.	0A	-tri,	1A	-tri,
.	.	.	.	.	.	2F/	per
.	.	.	.	.	.	2G/	quem
.	.	.	.	2F/	per	2A/	om-
.	.	.	.	2G/	quem	2B-/	-ni-
=48	=48	=48	=48	=48	=48	=48	=48
0.r	.	0.r	.	2A/	om-	2.c/	-a,
.	.	.	.	2B-\	-ni-	.	.
.	.	.	.	.	.	4d/	.
.	.	.	.	0c	-a	2e/	.
.	.	.	.	.	.	2f/	om-
.	.	.	.	.	.	2g/	-ni-
.	.	.	.	.	.	2a/	-a
=49	=49	=49	=49	=49	=49	=49	=49
0.r	.	0.r	.	2G/	fac-	2.b-\	fac-
.	.	.	.	1B-	.	.	.
.	.	.	.	.	.	4a/	.
.	.	.	.	.	.	4g/	.
.	.	.	.	.	.	4f/	.
.	.	.	.	2A/	.	1f	.
.	.	.	.	1G	-ta	.	.
.	.	.	.	.	.	2e/	-ta
=50	=50	=50	=50	=50	=50	=50	=50
1.FF	Qui	[0.c	Prop-	0.F	sunt.	0f	sunt.
1.F	prop-	.	.	.	.	.	.
.	.	.	.	.	.	1a	Qui
=51	=51	=51	=51	=51	=51	=51	=51
1E	-ter	0c]	.	1C	.	1.g	prop-
2E	nos	.	.	1r	.	.	.
2F\	ho-	.	.	.	.	2f/	-ter
1D	-mi-	1F	-ter	1r	.	2.a/	nos
.	.	.	.	.	.	4g/	.
=52	=52	=52	=52	=52	=52	=52	=52
1C	-nes	0.r	.	1.c	Et	2.e/	ho-
.	.	.	.	.	.	4f/	.
1r	.	.	.	.	.	2.g/	-mi-
.	.	.	.	1.B-	prop-	.	.
.	.	.	.	.	.	4f/	.
1r	.	.	.	.	.	1d	-nes
=53	=53	=53	=53	=53	=53	=53	=53
0.r	.	0.r	.	2.c\	.	2c/	et
.	.	.	.	.	.	2.e/	prop-
.	.	.	.	4B-\	.	.	.
.	.	.	.	2G/	.	.	.
.	.	.	.	.	.	4d/	-ter
.	.	.	.	2B-\	-ter	1g	nos-
.	.	.	.	1A	nos-	.	.
.	.	.	.	.	.	2f#i/	.
=54	=54	=54	=54	=54	=54	=54	=54
1.C	prop-	[0.c	nos-	2G/	-tram	1g	-tram
.	.	.	.	2.c\	sa-	.	.
.	.	.	.	.	.	1r	.
.	.	.	.	4B-\	.	.	.
1.F	-ter	.	.	4A/	.	.	.
.	.	.	.	4G/	.	.	.
.	.	.	.	2.F/	-lu-	1a	sa-
.	.	.	.	4E/	.	.	.
=55	=55	=55	=55	=55	=55	=55	=55
1E	nos-	0c]	.	1C	-tem,	1.g	.
2E	-tram	.	.	2r	.	.	.
2F\	sa-	.	.	1c	de-	1a	-lu-
1D	-lu-	1F	-tram...	.	.	.	.
.	.	.	.	2B-\	.	4g/	.
.	.	.	.	.	.	4f/	.
=56	=56	=56	=56	=56	=56	=56	=56
1C	-tem,	0.r	.	2.c\	-scen-	0.e	-tem
.	.	.	.	4B-\	.	.	.
2r	.	.	.	2A/	.	.	.
2C/	de-	.	.	2.G/	.	.	.
[1C	-scen-	.	.	.	.	.	.
.	.	.	.	4F/	.	.	.
.	.	.	.	4E/	.	.	.
.	.	.	.	4D/	.	.	.
=57	=57	=57	=57	=57	=57	=57	=57
2C/]	.	0.r	.	4E/	.	0.r	.
.	.	.	.	4D/	.	.	.
2BB-/	-dit	.	.	2.G/	-dit	.	.
1AA	de	.	.	.	.	.	.
.	.	.	.	4C/	de	.	.
.	.	.	.	1F	ce-	.	.
1GG	ce-	.	.	.	.	.	.
.	.	.	.	2E/	.	.	.
=58	=58	=58	=58	=58	=58	=58	=58
0FF	-lis.	1r	.	0F	-lis.	0.r	.
.	.	2r	.	.	.	.	.
.	.	2c\	Et	.	.	.	.
2.C/	Et	[1c	in-	1r	.	.	.
4D\	.	.	.	.	.	.	.
=59	=59	=59	=59	=59	=59	=59	=59
4E\	in-	2c\]	.	0.r	.	0.r	.
4F\	.	.	.	.	.	.	.
2.G\	-car-	2B-\	-car-	.	.	.	.
.	.	1A	-na-	.	.	.	.
4F\	.	.	.	.	.	.	.
1F	-na-	.	.	.	.	.	.
.	.	1G	-tus	.	.	.	.
2E\	-tus	.	.	.	.	.	.
=60	=60	=60	=60	=60	=60	=60	=60
1F	est	0F	est	0.r	.	0.r	.
2r	.	.	.	.	.	.	.
2F\	de	.	.	.	.	.	.
[1G	spi-	2.B-\	de	.	.	.	.
.	.	4c\	.	.	.	.	.
=61	=61	=61	=61	=61	=61	=61	=61
2G\]	.	4d\	spi-	1r	.	0.r	.
.	.	4e-i\	-ri-	.	.	.	.
2F\	-ri-	1d	-tu	.	.	.	.
1E	-tu	.	.	1r	.	.	.
.	.	1c	sanc-	.	.	.	.
1D	sanc-	.	.	1F	Ex	.	.
.	.	2Bni\	.	.	.	.	.
=62	=62	=62	=62	=62	=62	=62	=62
0.C	-to	0.c	-to	2.G/	Ma-	2r	.
.	.	.	.	.	.	1g	Ex
.	.	.	.	4F/	.	.	.
.	.	.	.	4E/	-ri-	.	.
.	.	.	.	4D/	.	.	.
.	.	.	.	2C/	-a,	2g/	Ma-
.	.	.	.	2.e-\	ex	[1g	-ri-
.	.	.	.	4e-i\	Ma-	.	.
=63	=63	=63	=63	=63	=63	=63	=63
0.r	.	0.r	.	2e-i\	-ri-	2g/]	.
.	.	.	.	2.d\	-a	2f/	-a
.	.	.	.	.	.	1e	vir-
.	.	.	.	4c\	.	.	.
.	.	.	.	1c	vir-	.	.
.	.	.	.	.	.	1d	-gi-
.	.	.	.	2Bni\	-gi-	.	.
=64	=64	=64	=64	=64	=64	=64	=64
0C	et	1r	.	2.c\	-ne	0c	-ne:
.	.	.	.	4B-\	et	.	.
.	.	2r	.	2A/	ho-	.	.
.	.	2c\	et	2G/	-mo	.	.
[1FF	ho-	[1c	ho-	[1F	fac-	2.cc\	et
.	.	.	.	.	.	4b-\	.
=65	=65	=65	=65	=65	=65	=65	=65
2FF/]	.	2c\]	.	2F/]	.	2a/	ho-
2GG/	-mo	2B-\	mo	4E/	.	1g	-mo
.	.	.	.	4D/	.	.	.
2AA/	fac-	1A	fac-	0C	-tus	.	.
2FF/	.	.	.	.	.	1f	fac-
1C	-tus	1G	-tus	.	.	.	.
.	.	.	.	.	.	2e/	-tus
=66	=66	=66	=66	=66	=66	=66	=66
0FF	est	0F	est	1c	est	1f	est
.	.	.	.	2r	.	2r	.
.	.	.	.	1A	Cru-	2.c/	Cru-
1F	Cru-	2r	.	.	.	.	.
.	.	.	.	.	.	4B-/	.
.	.	[2c\	Cru-	2F/	-ci-	2A/	-ci-
=67	=67	=67	=67	=67	=67	=67	=67
2E\	-ci-	2c\]	.	2G/	-fi-	2G/	-fi-
1F	-fi-	2c\	-ci-	1A	-xus	2F/	-xus
.	.	2F/	-fi-	.	.	1A	e-
2F	-xus	1c	-xus	2F/	e-	.	.
2E\	e-	.	.	2G/	-ti-	2G/	.
[2F\	-ti-	2c	e-	[2A/	-am	2F/	-ti-
=68	=68	=68	=68	=68	=68	=68	=68
2F]	.	2F/	-ti-	2A/]	.	2.c/	-am
2F	-am	1c	-am	2F/	pro	.	.
.	.	.	.	.	.	4B-/	.
2E\	pro	.	.	2G/	no-	2G/	.
2F\	.	2c\	pro	1A	.	2F/	pro
1D	no-	1F	no-	.	.	1f	no-
.	.	.	.	2F/	.	.	.
=69	=69	=69	=69	=69	=69	=69	=69
0.C	-bis;	0.c	-bis;	1A	.	0.e	-bis;
.	.	.	.	0G	-bis;	.	.
=70	=70	=70	=70	=70	=70	=70	=70
0.r	.	0.r	.	2A/	sub	2r	.
.	.	.	.	2.B-\	Pon-	1d	sub
.	.	.	.	4A/	.	.	.
.	.	.	.	4G/	-ti-	2d/	Pon-
.	.	.	.	4F/	.	.	.
.	.	.	.	2.c\	-o	1e	-ti-
.	.	.	.	4B-\	.	.	.
=71	=71	=71	=71	=71	=71	=71	=71
0.r	.	0.r	.	4A/	Pi-	2e/	-o
.	.	.	.	4G/	.	.	.
.	.	.	.	1d\	-la-	1f	Pi-
.	.	.	.	1c	.	2e/	.
.	.	.	.	.	.	1d	-la-
.	.	.	.	2Bni\	.	.	.
=72	=72	=72	=72	=72	=72	=72	=72
1.C	pas-	0.r	.	1c	-to	1c	-to
.	.	.	.	2G/	pas-	1r	.
1.BB-	-sus	.	.	2.B-\	.	.	.
.	.	.	.	.	.	1r	.
.	.	.	.	4A/	.	.	.
.	.	.	.	[2F/	.	.	.
=73	=73	=73	=73	=73	=73	=73	=73
2AA/	et	1.c	pas-	4F/]	.	0.r	.
.	.	.	.	4E/	.	.	.
2.C/	.	.	.	4C/	.	.	.
.	.	.	.	4D/	.	.	.
.	.	.	.	4E/	.	.	.
4BB-/	.	.	.	4F/	.	.	.
2GG/	se-	1.B-	-sus	2.G/	.	.	.
2.BB-/	-pul-	.	.	.	.	.	.
.	.	.	.	4F/	.	.	.
.	.	.	.	2D/	-sus	.	.
4AA/	-tus	.	.	.	.	.	.
=74	=74	=74	=74	=74	=74	=74	=74
1FF	est,	2A/	et	2.F/	et	1.cc	pas-
.	.	2.c\	.	.	.	.	.
.	.	.	.	4E/	.	.	.
1r	.	.	.	2C/	se-	.	.
.	.	4B-\	.	.	.	.	.
.	.	2G/	se-	2.E-i/	-pul-	1.b-	-sus
1EE-	se-	2.B-\	-pul-	.	.	.	.
.	.	.	.	4D/	-tus	.	.
.	.	.	.	2BB-/	est,	.	.
.	.	4A/	-tus	.	.	.	.
=75	=75	=75	=75	=75	=75	=75	=75
0FF	-pul-	2.F/	est,	2r	.	2a/	et
.	.	.	.	1.F	se-	2.cc\	.
.	.	4G/	.	.	.	.	.
.	.	4A/	.	.	.	.	.
.	.	4B-\	.	.	.	4b-\	.
.	.	2c\	.	.	.	4a/	se-
.	.	.	.	.	.	4g/	.
1GG	.	4B-\	se-	1D	.	2.b-\	-pul-
.	.	4G/	.	.	.	.	.
.	.	[2B-\	-pul-	.	.	.	.
.	.	.	.	.	.	4a/	.
=76	=76	=76	=76	=76	=76	=76	=76
2EE-/	.	2B-\]	.	2E-i/	-pul-	4g/	.
.	.	.	.	.	.	4f/	.
2.FF/	.	2A/	.	2.C/	.	2.a/	.
.	.	1F	.	.	.	.	.
4GG/	.	.	.	4BB-/	.	4g/	.
2AA/	.	.	.	2C/	.	1f	.
2BB-/	.	1G	-tus	2D/	.	.	.
2C/	-tus	.	.	2E-i/	-tus	2e/	-tus
=77	=77	=77	=77	=77	=77	=77	=77
[0.FFl	est.	[0.Fl	est.	0.C	est.	[0.fl	est.
=78	=78	=78	=78	=78	=78	=78	=78
0.FF]	.	0.F]	.	0.cl	.	0.f]	.
!!LO:LB:i:g=z
=79||	=79||	=79||	=79||	=79||	=79||	=79||	=79||
*>B	*	*>B	*	*>B	*	*>B	*
!!section: Et resurrexit
!!!OMD: Et resurrexit
*M2/1	*	*M2/1	*	*M2/1	*	*M2/1	*
*met(C|)	*	*met(C|)	*	*met(C|)	*	*met(C|)	*
!	!	!	!	!	!	!LO:TX:Z=6:t=S - fourfold c.f. statement indicated by repeat signs	!
0r	.	0r	.	0F	Et	0r	.
=80	=80	=80	=80	=80	=80	=80	=80
0r	.	0r	.	1F	re-	0r	.
.	.	.	.	2.G/	-sur-	.	.
.	.	.	.	4A/	.	.	.
=81	=81	=81	=81	=81	=81	=81	=81
0F	Et	0r	.	2B-\	.	0r	.
.	.	.	.	2.A/	-re-	.	.
.	.	.	.	4G/	.	.	.
.	.	.	.	4F/	.	.	.
.	.	.	.	4E/	.	.	.
=82	=82	=82	=82	=82	=82	=82	=82
1F	re-	0r	.	1D	.	0r	.
2.G\	-sur-	.	.	1C	-xit	.	.
4A\	.	.	.	.	.	.	.
=83	=83	=83	=83	=83	=83	=83	=83
2B-\	.	0r	.	1r	.	0f	Ter-
2.A\	-re-	.	.	.	.	.	.
.	.	.	.	[1F	ter-	.	.
4G\	.	.	.	.	.	.	.
4F\	.	.	.	.	.	.	.
4E\	.	.	.	.	.	.	.
=84	=84	=84	=84	=84	=84	=84	=84
1D	.	1r	.	1F]	.	1f	-ti-
1C	-xit	[1c	Ter-	2G/	.	[1e	-a
.	.	.	.	[2A/	.	.	.
=85	=85	=85	=85	=85	=85	=85	=85
1r	.	2c\]	.	2A/]	.	1e]	.
.	.	2B-\	-ti-	4G/	-ti-	.	.
.	.	.	.	4F/	.	.	.
1C	ter-	2A/	-a	1c	-a	1e	di-
.	.	2G/	.	.	.	.	.
=86	=86	=86	=86	=86	=86	=86	=86
1D	-ti-	1F	.	2A/	di-	0f	.
.	.	.	.	1B-	.	.	.
2BB-/	-a	[1B-	di-	.	.	.	.
[2D\	di-	.	.	4A/	.	.	.
.	.	.	.	4G/	.	.	.
=87	=87	=87	=87	=87	=87	=87	=87
2D\]	.	1B-]	.	0F	-e	1d	.
2E\	.	.	.	.	.	.	.
1F	.	1A	-e	.	.	[1c	-e
=88	=88	=88	=88	=88	=88	=88	=88
1FF	-e	2r	.	2r	.	1c]	.
.	.	2A/	se-	2c\	se-	.	.
1r	.	2G/	.	2B-\	.	1r	.
.	.	[2A/	-cun-	[2c\	-cun-	.	.
=89	=89	=89	=89	=89	=89	=89	=89
0r	.	2A/]	.	2c\]	.	0r	.
.	.	4G/	.	4B-\	.	.	.
.	.	4F/	.	4A/	.	.	.
.	.	1E	-dum	1G	-dum	.	.
=90	=90	=90	=90	=90	=90	=90	=90
0r	.	2r	.	2r	.	0r	.
.	.	2c\	scrip-	2A/	scrip-	.	.
.	.	2B-\	.	2G/	.	.	.
.	.	[2c\	-tu-	[2A/	-tu-	.	.
=91	=91	=91	=91	=91	=91	=91	=91
0r	.	2c\]	.	2A/]	.	0r	.
.	.	4B-\	.	4G/	.	.	.
.	.	4A/	.	4F/	.	.	.
.	.	1G	-ras.	1E	-ras.	.	.
=92	=92	=92	=92	=92	=92	=92	=92
1.FF	Et	1r	.	1r	.	0f	Et
.	.	[1A	Et	1c	Et	.	.
2GG/	a-	.	.	.	.	.	.
=93	=93	=93	=93	=93	=93	=93	=93
2AA/	-scen-	1A]	.	1c	a-	1f	a-
2BB-/	.	.	.	.	.	.	.
2C/	.	1A	a-	[1c	-scen-	[1e	-scen-
2D\	.	.	.	.	.	.	.
=94	=94	=94	=94	=94	=94	=94	=94
2E\	.	1G/	-scen-	1c]	.	1e]	.
2F\	-dit	.	.	.	.	.	.
2G\	in	1C	-dit	1c	-dit	1e	-dit
[2A\	ce-	.	.	.	.	.	.
=95	=95	=95	=95	=95	=95	=95	=95
2A\]	.	2.F/	in	4A/	in	0f	in
.	.	.	.	4G/	.	.	.
1D	.	.	.	4F/	.	.	.
.	.	4G/	.	4E/	.	.	.
.	.	4A/	.	[1D	ce-	.	.
.	.	4B-\	.	.	.	.	.
2C/	.	[2A/	ce-	.	.	.	.
=96	=96	=96	=96	=96	=96	=96	=96
1BB-	.	2A/]	.	1D]	.	1d	ce-
.	.	2G/	.	.	.	.	.
1AA	-lum;	[1A	-lum;	1E	-lum;	[1c	-lum;
=97	=97	=97	=97	=97	=97	=97	=97
1r	.	1A]	.	4F/	se-	1c]	.
.	.	.	.	4G/	.	.	.
.	.	.	.	4A/	.	.	.
.	.	.	.	4B-\	.	.	.
1F	se-	1r	.	2c\	-det	1r	.
.	.	.	.	2d\	ad	.	.
=98	=98	=98	=98	=98	=98	=98	=98
1G	-det	0r	.	4e-i\	dex-	0r	.
.	.	.	.	4d\	.	.	.
.	.	.	.	4e-i\	-te-	.	.
.	.	.	.	4d\	.	.	.
2G\	ad	.	.	2e-i\	-ram	.	.
[2F\	dex-	.	.	[2d\	pa-	.	.
=99	=99	=99	=99	=99	=99	=99	=99
2F\]	.	1r	.	4d\]	.	0r	.
.	.	.	.	4c\	.	.	.
2F\	-te-	.	.	4B-\	.	.	.
.	.	.	.	4A/	.	.	.
2E\	-ram	2r	.	1G	-tris,	.	.
2C/	.	[2c\	se-	.	.	.	.
=100	=100	=100	=100	=100	=100	=100	=100
2E\	pa-	2c\]	.	1r	.	1r	.
2F\	.	4B-\	.	.	.	.	.
.	.	4A/	.	.	.	.	.
1D	.	1B-	-det	1d	ad	1f	se-
=101	=101	=101	=101	=101	=101	=101	=101
1C	-tris,	0r	.	4e-i\	dex-	1g	-det
.	.	.	.	4d\	.	.	.
.	.	.	.	4e-i\	-te-	.	.
.	.	.	.	4d\	.	.	.
[1BB-	pa-	.	.	2e-i\	-ram	2g/	ad
.	.	.	.	[2d\	pa-	[2f/	dex-
=102	=102	=102	=102	=102	=102	=102	=102
1BB-]	.	1r	.	4d\]	.	2f/]	.
.	.	.	.	4c\	.	.	.
.	.	.	.	4B-\	.	2f/	-te-
.	.	.	.	4A/	.	.	.
1C	.	2r	.	[1G	-tris.	2e/	-ram
.	.	[2c\	ad	.	.	2c/	.
=103	=103	=103	=103	=103	=103	=103	=103
0GG	.	2c\]	.	0G]	.	2e/	pa-
.	.	4Bni\	dex-	.	.	2f/	.
.	.	4A/	.	.	.	.	.
.	.	1Bni	-te-	.	.	1d	.
=104	=104	=104	=104	=104	=104	=104	=104
0AA	-tris.	1.c	-ram	2r	.	[0c	-tris.
.	.	.	.	2C/	Et	.	.
.	.	.	.	2C/	i-	.	.
.	.	2A	pa-	2C/	-te-	.	.
=105	=105	=105	=105	=105	=105	=105	=105
2r	.	0A	-tris.	0F	-rum	0c]	.
2FF/	Et	.	.	.	.	.	.
2FF/	i-	.	.	.	.	.	.
2FF/	-te-	.	.	.	.	.	.
=106	=106	=106	=106	=106	=106	=106	=106
0BB-	-rum	2r	.	1r	.	0r	.
.	.	2F/	Et	.	.	.	.
.	.	2F/	i-	2r	.	.	.
.	.	2F/	-te-	2F/	ven-	.	.
=107	=107	=107	=107	=107	=107	=107	=107
1r	.	0B-	-rum	1E-	-tu-	0r	.
2r	.	.	.	1D	-rus	.	.
2BB-/	ven-	.	.	.	.	.	.
=108	=108	=108	=108	=108	=108	=108	=108
1AA	-tu-	1r	.	4C/	est,	0r	.
.	.	.	.	4D/	.	.	.
.	.	.	.	4Eni/	.	.	.
.	.	.	.	4F/	.	.	.
1GG	-rus	2r	.	2BB-/	.	.	.
.	.	2B-\	ven-	[2D/	ven-	.	.
=109	=109	=109	=109	=109	=109	=109	=109
1FF	est	1A	-tu-	4D/]	.	0r	.
.	.	.	.	4C/	.	.	.
.	.	.	.	1F	-tu-	.	.
2r	.	1G	-rus	.	.	.	.
2C/	cum	.	.	2E/	-rus	.	.
=110	=110	=110	=110	=110	=110	=110	=110
2D\	glo-	0F	est,	4F/	est	0f	Glo-
.	.	.	.	4G/	.	.	.
2.F\	.	.	.	4A/	.	.	.
.	.	.	.	4B-\	.	.	.
.	.	.	.	2c\	cum	.	.
4E\	.	.	.	.	.	.	.
4D\	.	.	.	[2d\	glo-	.	.
4C/	.	.	.	.	.	.	.
=111	=111	=111	=111	=111	=111	=111	=111
1BB-	.	1r	.	4d\]	.	1f	-ri-
.	.	.	.	4c\	.	.	.
.	.	.	.	4B-\	-ri-	.	.
.	.	.	.	4A/	.	.	.
1C	-ri-	1c	ven-	1G	-a,	[1e	-a
=112	=112	=112	=112	=112	=112	=112	=112
1AA	-a	1c	-tu-	0C	.	1e]	.
2r	.	1c	-rus	.	.	1e	ju-
2C/	ju-	.	.	.	.	.	.
=113	=113	=113	=113	=113	=113	=113	=113
2D\	-di-	2.A/	est	2.F/	cum	0f	-di-
2.F\	-ca-	.	.	.	.	.	.
.	.	4B-\	.	4G/	.	.	.
.	.	2c\	cum	2A/	.	.	.
4E\	.	.	.	.	.	.	.
4D\	.	[2d\	glo-	[2B-\	glo-	.	.
4C/	.	.	.	.	.	.	.
=114	=114	=114	=114	=114	=114	=114	=114
1BB-	.	4d\]	.	4B-\]	.	1d	-ca-
.	.	4c\	.	4A/	.	.	.
.	.	4B-\	-ri-	4G/	-ri-	.	.
.	.	4A/	.	4F/	.	.	.
1C	.	1G	-a	1E	-a	[1c	-re,
=115	=115	=115	=115	=115	=115	=115	=115
0FF	-re	1r	.	1r	.	1c]	.
.	.	1F	ju-	1A	ju-	1r	.
=116	=116	=116	=116	=116	=116	=116	=116
0r	.	1G	-di-	1B-	-di-	0r	.
.	.	1E	-ca-	1c	-ca-	.	.
=117	=117	=117	=117	=117	=117	=117	=117
0r	.	2.F/	-re	2.A/	-re	0r	.
.	.	4G/	.	4B-\	.	.	.
.	.	2A/	.	2c\	.	.	.
.	.	[2B-\	vi-	[2d\	vi-	.	.
=118	=118	=118	=118	=118	=118	=118	=118
1r	.	4B-\]	.	4d\]	.	0r	.
.	.	4A/	.	4c\	.	.	.
.	.	4G/	.	4B-\	.	.	.
.	.	4F/	.	4A/	.	.	.
1C	vi-	1E	-vos,	1G	-vos,	.	.
=119	=119	=119	=119	=119	=119	=119	=119
2D\	.	4F/	vi-	0F	.	0f	vi-
.	.	4G/	.	.	.	.	.
2.F\	.	4A/	.	.	.	.	.
.	.	4B-\	.	.	.	.	.
.	.	2c\	.	.	.	.	.
4E\	.	.	.	.	.	.	.
4D\	.	[2d\	.	.	.	.	.
4C/	.	.	.	.	.	.	.
=120	=120	=120	=120	=120	=120	=120	=120
1BB-	.	4d\]	.	1r	.	1f	-vos
.	.	4c\	.	.	.	.	.
.	.	4B-\	.	.	.	.	.
.	.	4A/	.	.	.	.	.
1C	.	1G	-vos	1c	vi-	[1e	et
=121	=121	=121	=121	=121	=121	=121	=121
1AA	-vos	0C	et	1c	-vos	1e]	.
2r	.	.	.	1c	et	1e	mor-
2C/	et	.	.	.	.	.	.
=122	=122	=122	=122	=122	=122	=122	=122
2D\	mor-	2.F/	mor-	2.A/	mor-	0f	.
2.F\	.	.	.	.	.	.	.
.	.	4G/	.	4B-\	.	.	.
.	.	2A/	.	2c\	.	.	.
4E\	.	.	.	.	.	.	.
4D\	.	[2B-\	.	[2d\	.	.	.
4C/	.	.	.	.	.	.	.
=123	=123	=123	=123	=123	=123	=123	=123
1BB-	.	4B-\]	.	4d\]	.	1d	-tu-
.	.	4A/	.	4c\	.	.	.
.	.	4G/	-tu-	4B-\	.	.	.
.	.	4F/	.	4A/	.	.	.
1C	-tu-	1E	-os;	1G	-tu-	[1c	-os;
=124	=124	=124	=124	=124	=124	=124	=124
0FF	-os;	1r	.	0F	-os;	1c]	.
.	.	[1c	cu-	.	.	1r	.
=125	=125	=125	=125	=125	=125	=125	=125
0r	.	2c\]	.	2.C/	cu-	0r	.
.	.	4B-\	.	.	.	.	.
.	.	4A/	.	4D/	.	.	.
.	.	2G/	-jus	2E/	-jus	.	.
.	.	[2A/	re-	[2F/	re-	.	.
=126	=126	=126	=126	=126	=126	=126	=126
0r	.	4A/]	.	4F/]	.	0r	.
.	.	4G/	.	4G/	.	.	.
.	.	2F/	.	4A/	.	.	.
.	.	.	.	4B-\	.	.	.
.	.	2E/	.	2G/	.	.	.
.	.	2C/	.	[2c\	.	.	.
=127	=127	=127	=127	=127	=127	=127	=127
0r	.	2E/	.	2c\]	.	1r	.
.	.	2F/	.	4B-\	.	.	.
.	.	.	.	4A/	.	.	.
.	.	1D	-gni,	1B-	-gni,	1f	cu-
=128	=128	=128	=128	=128	=128	=128	=128
0r	.	2.C/	cu-	2r	.	1g	-jus
.	.	.	.	2.c\	cu-	.	.
.	.	4D/	.	.	.	.	.
.	.	2E/	-jus	.	.	2g/	re-
.	.	.	.	4B-\	.	.	.
.	.	[2F/	re-	4A/	jus	[2f/	-gni
.	.	.	.	4G/	.	.	.
=129	=129	=129	=129	=129	=129	=129	=129
0r	.	4F/]	.	1F	re-	2f/]	.
.	.	4G/	.	.	.	.	.
.	.	4A/	.	.	.	2f/	non
.	.	4B-\	.	.	.	.	.
.	.	2G/	.	1C	.	2e/	e-
.	.	[2c\	.	.	.	2c/	-rit
=130	=130	=130	=130	=130	=130	=130	=130
1r	.	2c\]	.	0G	-gni	2e/	fi-
.	.	4Bni\	.	.	.	2f/	.
.	.	4A/	.	.	.	.	.
1GG	non	1Bni	.	.	.	1d	.
=131	=131	=131	=131	=131	=131	=131	=131
2AA/	e-	1c	-gni	2C/	non	[0c	-nis.
2FF/	-rit	.	.	2F/	e-	.	.
2.AA/	fi-	2C/	non	2E/	-rit	.	.
.	.	2F/	e-	2A/	fi-	.	.
4BB-/	.	.	.	.	.	.	.
=132	=132	=132	=132	=132	=132	=132	=132
2C/	.	2E/	-rit	2G/	.	0c]	.
2AA	.	2A/	fi-	2.c\	.	.	.
2C.	.	2G/	.	.	.	.	.
.	.	.	.	4B-\	.	.	.
.	.	[2c\	.	2A/	.	.	.
4D	.	.	.	.	.	.	.
=133	=133	=133	=133	=133	=133	=133	=133
2E	.	2c\]	.	2G/	.	0r	.
2F\	.	4B-\	.	2F/	-nis,	.	.
.	.	4A/	.	.	.	.	.
2G\	.	2B-\	.	2r	.	.	.
[2A\	.	2c\	.	[2F/	fi-	.	.
=134	=134	=134	=134	=134	=134	=134	=134
2A\]	.	1F	.	2F/]	.	0r	.
1F	.	.	.	2D/	.	.	.
.	.	1G	.	1C	-nis,	.	.
2E\	.	.	.	.	.	.	.
=135	=135	=135	=135	=135	=135	=135	=135
0F	-nis.	0F	nis.	2r	.	0r	.
.	.	.	.	1c	fi-	.	.
.	.	.	.	4B-\	.	.	.
.	.	.	.	4A/	.	.	.
=136	=136	=136	=136	=136	=136	=136	=136
0r	.	0r	.	2B-\	.	0r	.
.	.	.	.	2c\	.	.	.
.	.	.	.	1F	-nis.	.	.
=137	=137	=137	=137	=137	=137	=137	=137
1.F	Et	1r	.	1r	.	0f	Et
.	.	[1F	Et	1A	Et	.	.
2E\	in	.	.	.	.	.	.
=138	=138	=138	=138	=138	=138	=138	=138
1D	spi-	1F]	.	1B-	in	1f	in
1C	-ri-	1G	in	[1c	spi-	[1e	spi-
=139	=139	=139	=139	=139	=139	=139	=139
0AA	-tum	1.A	spi-	2c\]	.	1e]	.
.	.	.	.	2c\	-ri-	.	.
.	.	.	.	1c	-tum	1e	-ri-
.	.	2A/	-ri-	.	.	.	.
=140	=140	=140	=140	=140	=140	=140	=140
1.D	sanc-	1A	-tum	1r	.	0f	-tum
.	.	[1D	sanc-	1F	sanc-	.	.
2C/	-tum	.	.	.	.	.	.
=141	=141	=141	=141	=141	=141	=141	=141
1BB-	do-	1D]	.	1G	-tum,	1d	sanc-
1AA	-mi-	1E	-tum	[1A	do-	[1c	-tum,
=142	=142	=142	=142	=142	=142	=142	=142
0FF	-num	1.F	do-	2A/]	.	1c]	.
.	.	.	.	2A/	-mi-	.	.
.	.	.	.	1A	-num	1r	.
.	.	2F/	-mi-	.	.	.	.
=143	=143	=143	=143	=143	=143	=143	=143
0r	.	1F	-num	1A	et	0r	.
.	.	2C/	et	1A	vi-	.	.
.	.	[2F/	vi-	.	.	.	.
=144	=144	=144	=144	=144	=144	=144	=144
0r	.	4F/]	.	1.A	vi-	0r	.
.	.	4G/	.	.	.	.	.
.	.	4A/	.	.	.	.	.
.	.	4B-\	.	.	.	.	.
.	.	2c\	-vi-	.	.	.	.
.	.	[2d\	-fi-	[2B-\	-fi-	.	.
=145	=145	=145	=145	=145	=145	=145	=145
0r	.	4d\]	.	4B-\]	.	0r	.
.	.	4c\	.	4A/	.	.	.
.	.	2A/	.	1A	-can-	.	.
.	.	1B-	-can-	.	.	.	.
.	.	.	.	2G/	.	.	.
=146	=146	=146	=146	=146	=146	=146	=146
1F	qui	0A	-tem;	0A	-tem;	0f	et
2D\	ex	.	.	.	.	.	.
[2F\	pa-	.	.	.	.	.	.
=147	=147	=147	=147	=147	=147	=147	=147
2F\]	.	1r	.	1F	.	1f	vi-
4E\	.	.	.	.	.	.	.
4D\	.	.	.	.	.	.	.
1C	-tre,	2r	.	1G	.	[1e	-vi-
.	.	[2c\	qui	.	.	.	.
=148	=148	=148	=148	=148	=148	=148	=148
1r	.	2c\]	.	0C	.	1e]	.
.	.	4B-\	.	.	.	.	.
.	.	4A/	.	.	.	.	.
1C	qui	2G/	.	.	.	1e	-fi-
.	.	2A/	.	.	.	.	.
=149	=149	=149	=149	=149	=149	=149	=149
1D	.	2r	.	0r	.	0f	-can-
.	.	1B-	ex	.	.	.	.
2BB-/	ex	.	.	.	.	.	.
[2D\	pa-	4A/	.	.	.	.	.
.	.	4G/	.	.	.	.	.
=150	=150	=150	=150	=150	=150	=150	=150
2D\]	.	2F/	.	0r	.	1d	.
4C/	.	2G/	.	.	.	.	.
4BB-/	.	.	.	.	.	.	.
1AA	-tre,	2r	.	.	.	[1c	-tem;
.	.	[2A/	pa-	.	.	.	.
=151	=151	=151	=151	=151	=151	=151	=151
1r	.	2A/]	.	1r	.	1c]	.
.	.	4G/	.	.	.	.	.
.	.	4F/	.	.	.	.	.
1AA	qui	2E/	-tre,	1c	qui	1r	.
.	.	2F/	.	.	.	.	.
=152	=152	=152	=152	=152	=152	=152	=152
1BB-	.	2r	.	1d	.	0r	.
.	.	1G	pa-	.	.	.	.
2GG/	ex	.	.	2B-\	ex	.	.
[2BB-/	pa-	4F/	.	[2d\	pa-	.	.
.	.	4E/	.	.	.	.	.
=153	=153	=153	=153	=153	=153	=153	=153
2BB-/]	.	2D/	-tre	2d\]	.	0r	.
4AA/	.	2E/	.	4c\	.	.	.
4GG/	.	.	.	4B-\	.	.	.
[1FF	-tre	2r	.	1A	-tre	.	.
.	.	[2F/	fi-	.	.	.	.
=154	=154	=154	=154	=154	=154	=154	=154
2FF/]	.	2F/]	.	1r	.	1r	.
2FF/	fi-	4E/	.	.	.	.	.
.	.	4D/	.	.	.	.	.
1FF	-li-	2C/	.	1A	fi-	1f	qui
.	.	2D/	.	.	.	.	.
=155	=155	=155	=155	=155	=155	=155	=155
1.EE-i	-o-	1E-	-li-	1B-	-li-	1g	ex
.	.	1C	-o-	1c	-o-	2g/	pa-
[2FF/	-que	.	.	.	.	[2f/	-tre
=156	=156	=156	=156	=156	=156	=156	=156
4FF/]	.	1c	-que,	1A	-que	2f/]	.
4GG/	.	.	.	.	.	.	.
4AA/	.	.	.	.	.	2f/	fi-
4BB-/	.	.	.	.	.	.	.
1C	.	2r	.	1G	.	2e/	-li-
.	.	2G/	fi-	.	.	2c/	-o-
=157	=157	=157	=157	=157	=157	=157	=157
1r	.	1A	-li-	2r	.	2e/	-que
.	.	.	.	2F/	fi-	2f/	pro-
2r	.	1B-	-o-	2G/	-li-	1d	-ce-
2GG/	fi-	.	.	2B-\	-o-	.	.
=158	=158	=158	=158	=158	=158	=158	=158
2AA/	-li-	1c	-que,	1A	-que	[0c	-dit.
2BB-/	o-	.	.	.	.	.	.
1C	-que,	2r	.	2G/	.	.	.
.	.	2G/	fi-	2E/	pro-	.	.
=159	=159	=159	=159	=159	=159	=159	=159
1r	.	2A/	-li-	2.F/	-ce-	0c]	.
.	.	2B-\	-o-	.	.	.	.
.	.	.	.	4E/	.	.	.
2r	.	1c	-que	1C	-dit.	.	.
2C/	fi-	.	.	.	.	.	.
=160	=160	=160	=160	=160	=160	=160	=160
2D\	-li-	1B-	pro-	0r	.	0r	.
2E\	-o-	.	.	.	.	.	.
2F\	-que	2A/	.	.	.	.	.
[2D\	pro-	[2B-\	-ce-	.	.	.	.
=161	=161	=161	=161	=161	=161	=161	=161
2D\]	.	4B-\]	.	0r	.	0r	.
.	.	4A/	.	.	.	.	.
2C/	.	1A	.	.	.	.	.
1BB-	-ce-	.	.	.	.	.	.
.	.	2G/	.	.	.	.	.
=162	=162	=162	=162	=162	=162	=162	=162
0AA	.	[0A	-dit.	0r	.	0r	.
=163	=163	=163	=163	=163	=163	=163	=163
0FF	-dit.	0A]	.	1r	.	0r	.
.	.	.	.	[1c	Qui 	.	.
=164	=164	=164	=164	=164	=164	=164	=164
0F	Qui	1r	.	1c]	.	0f	Cum
.	.	1c	Qui	1A	cum	.	.
=165	=165	=165	=165	=165	=165	=165	=165
1D	cum	1d	cum	1B-	pa-	1f	pa-
1E	pa-	1B-	pa-	[1G	-tre	[1e	-tre
=166	=166	=166	=166	=166	=166	=166	=166
0C	-tre	0c	-tre	1G]	.	1e]	.
.	.	.	.	[1A	et 	1e	et
=167	=167	=167	=167	=167	=167	=167	=167
0D	et	1r	.	1A]	.	0f	fi-
.	.	1A	et	1F	fi-	.	.
=168	=168	=168	=168	=168	=168	=168	=168
1BB-	fi-	1B-	fi-	1G	-li-	1d	-li-
1C	-li-	1G	-li-	[1E	-o	[1c	-o...
=169	=169	=169	=169	=169	=169	=169	=169
0AA	-o	0A	-o	1E]	.	1c]	.
.	.	.	.	1c	si-	1r	.
=170	=170	=170	=170	=170	=170	=170	=170
1BB-	si-	2F/	si-	1d	.	0r	.
.	.	2.G/	-mul	.	.	.	.
1GG	-mul	.	.	1B-	-mul	.	.
.	.	4F/	.	.	.	.	.
.	.	4E/	.	.	.	.	.
.	.	4D/	.	.	.	.	.
=171	=171	=171	=171	=171	=171	=171	=171
1AA	ad-	1C	.	1c	ad-	0r	.
2FF/	-o-	1r	.	2A/	-o-	.	.
[2GG/	-ra-	.	.	[2B-\	-ra-	.	.
=172	=172	=172	=172	=172	=172	=172	=172
4GG/]	.	0r	.	4B-\]	.	0r	.
4FF/	.	.	.	4A/	.	.	.
4EE/	.	.	.	4G/	.	.	.
4DD/	.	.	.	4F/	.	.	.
1EE	.	.	.	1G	.	.	.
=173	=173	=173	=173	=173	=173	=173	=173
0FF	-tur	1r	.	0F	-tur	0f	et
.	.	2r	.	.	.	.	.
.	.	[2A/	glo-	.	.	.	.
=174	=174	=174	=174	=174	=174	=174	=174
0r	.	2A/]	.	0r	.	1f	con-
.	.	4G/	-ri-	.	.	.	.
.	.	4F/	.	.	.	.	.
.	.	2A/	-fi-	.	.	[1e	-glo-
.	.	[2G/	-ca-	.	.	.	.
=175	=175	=175	=175	=175	=175	=175	=175
0r	.	4G/]	.	1r	.	1e]	.
.	.	4F/	.	.	.	.	.
.	.	4E/	.	.	.	.	.
.	.	4D/	.	.	.	.	.
.	.	1C	-tur	1c	et	1e	-ri-
=176	=176	=176	=176	=176	=176	=176	=176
0r	.	0r	.	2A/	con-	0f	-fi-
.	.	.	.	2.d\	-glo-	.	.
.	.	.	.	4c\	-ri-	.	.
.	.	.	.	4Bni\	-fi-	.	.
.	.	.	.	4A/	.	.	.
=177	=177	=177	=177	=177	=177	=177	=177
0r	.	0r	.	1Bni	-ca-	1d	-ca-
.	.	.	.	1c	-tur;	[1c	-tur;
=178	=178	=178	=178	=178	=178	=178	=178
1.F	qui	1.c	qui	1r	.	1c]	.
.	.	.	.	[1A	qui	1r	.
2F\	lo-	2c\	lo-	.	.	.	.
=179	=179	=179	=179	=179	=179	=179	=179
1F	-cu-	1c	-cu-	2A/]	.	0r	.
.	.	.	.	2A/	lo-	.	.
1F	-tus	1c	-tus	2A/	-cu-	.	.
.	.	.	.	2A/	-tus	.	.
=180	=180	=180	=180	=180	=180	=180	=180
1F	est	1c	est	1A	est	0r	.
1r	.	1r	.	2r	.	.	.
.	.	.	.	[2A/	per	.	.
=181	=181	=181	=181	=181	=181	=181	=181
1.F	per	2.c\	per	2A/]	.	1r	.
.	.	.	.	4G/	.	.	.
.	.	4B-\	.	4F/	.	.	.
.	.	2c\	.	1A	pro-	1f	qui
4E\	.	2d\	.	.	.	.	.
4D\	.	.	.	.	.	.	.
=182	=182	=182	=182	=182	=182	=182	=182
2E\	.	2B-\	pro-	1G	-phe-	1g	.
1C	pro-	1c	-phe-	.	.	.	.
.	.	.	.	2E/	.	2g/	lo-
[2D\	-phe-	[2A/	.	2F/	.	[2f/	-cu-
=183	=183	=183	=183	=183	=183	=183	=183
2D\]	.	2A/]	.	1D	.	2f/]	.
4C/	.	2B-\	.	.	.	2f/	-tus
4BB-/	.	.	.	.	.	.	.
2C/	.	2G/	.	1C	-tas,	2e/	est
2AA/	.	[2c\	.	.	.	2c/	per
=184	=184	=184	=184	=184	=184	=184	=184
2C/	.	2c\]	.	1r	.	2e/	pro-
2D\	.	1A	.	.	.	2f/	.
1BB-	.	.	.	1D	per	1d	-phe-
.	.	2G/	.	.	.	.	.
=185	=185	=185	=185	=185	=185	=185	=185
[0AAl	-tas.	[0Al	-tas.	1E	pro-	[0cl	-tas.
.	.	.	.	1E	-phe-	.	.
=186	=186	=186	=186	=186	=186	=186	=186
0AA]	.	0A]	.	0El	-tas.	0c]	.
!!LO:LB:i:g=z
=187||	=187||	=187||	=187||	=187||	=187||	=187||	=187||
*>C	*	*>C	*	*>C	*	*>C	*
!!section: Et unam
!!!OMD: Et unam
*M3/1	*	*M3/1	*	*M3/1	*	*M3/1	*
*met(C|3)	*	*met(C|3)	*	*met(C|3)	*	*met(C|3)	*
0.r	.	0F	Et	0.r	.	0.r	.
.	.	1F	u-	.	.	.	.
=188	=188	=188	=188	=188	=188	=188	=188
0.r	.	0B-	-nam	0.r	.	0.r	.
.	.	1B-	sanc-	.	.	.	.
=189	=189	=189	=189	=189	=189	=189	=189
0.r	.	1A	.	0C	Et	1r	.
.	.	0G	.	.	.	1r	.
.	.	.	.	1C	u-	1g	Et
=190	=190	=190	=190	=190	=190	=190	=190
0.r	.	0.F	-tam	0F	-nam	0a	u-
.	.	.	.	1F	sanc-	1a	-nam
=191	=191	=191	=191	=191	=191	=191	=191
0.r	.	0.r	.	1E	.	1g	sanc-
.	.	.	.	0D	.	0f	.
=192	=192	=192	=192	=192	=192	=192	=192
1r	.	1c	ca-	0.C	-tam	0e	-tam
1r	.	1c	-tho-	.	.	.	.
1C	Ca-	1c	-li-	.	.	1r	.
=193	=193	=193	=193	=193	=193	=193	=193
0D	-tho-	0.F	-cam	0.r	.	1f	ca-
.	.	.	.	.	.	1f	-tho-
1D	-li-	.	.	.	.	1f	-li-
=194	=194	=194	=194	=194	=194	=194	=194
0C	-cam	0.r	.	1G	ca-	0e	-cam
.	.	.	.	1G	-tho-	.	.
1r	.	.	.	1G	-li-	1r	.
=195	=195	=195	=195	=195	=195	=195	=195
0E	et	0c	et	0.C	-cam	0g	et
1E	a-	1c	a-	.	.	1g	a-
=196	=196	=196	=196	=196	=196	=196	=196
1E	pos-	1c	pos-	0.r	.	1g	-pos-
1F	-to-	1A	-to-	.	.	1c	-to-
1D	-li	1B-	-li	.	.	1d	-li-
=197	=197	=197	=197	=197	=197	=197	=197
0C	-cam	0.c	-cam,	0G	et	0e	-cam
1C	ec-	.	.	1G	a-	1e	ec-
=198	=198	=198	=198	=198	=198	=198	=198
1BB-	-cle-	0.r	.	1G	-pos-	1d	-cle-
1C	.	.	.	1E	-to-	2c/	.
.	.	.	.	.	.	2B-/	.
1D	.	.	.	1F	-li-	1A	-si-
=199	=199	=199	=199	=199	=199	=199	=199
1.GG	.	0.r	.	0G	-cam	0G	-am,
2AA/	.	.	.	.	.	.	.
1BB-	-si-	.	.	1G	ec-	1d	ec-
=200	=200	=200	=200	=200	=200	=200	=200
0C	-am.	0c	et	0G	-cle-	1.e	-cle-
.	.	.	.	.	.	4f/	.
.	.	.	.	.	.	4g/	.
1r	.	1c	a-	1F	.	1a	.
=201	=201	=201	=201	=201	=201	=201	=201
0.r	.	1c	pos-	1E	.	1g	.
.	.	1A	-to-	0D	-si-	0f	.
.	.	1B-	-li	.	.	.	.
=202	=202	=202	=202	=202	=202	=202	=202
0.r	.	0c	-cam	[0.C	-am.	1.e	.
.	.	.	.	.	.	2f/	.
.	.	1c	ec-	.	.	1g	.
=203	=203	=203	=203	=203	=203	=203	=203
0.r	.	0c	-cle-	0.C_	.	1a	.
.	.	.	.	.	.	1.g	.
.	.	1B-	.	.	.	.	.
.	.	.	.	.	.	2f/	.
=204	=204	=204	=204	=204	=204	=204	=204
0.r	.	1A	.	0.C]	.	0f	.
.	.	0G	-si-	.	.	.	.
.	.	.	.	.	.	1e	-si-
=205	=205	=205	=205	=205	=205	=205	=205
0F	Con-	0F	-am.	0c	Con-	0.f	-am.
1F	-fi-	1D	Con-	1d	.	.	.
=206	=206	=206	=206	=206	=206	=206	=206
1.E	-te-	1C	-fi-	1.e	-fi-	0.r	.
.	.	0G	.	.	.	.	.
2D\	.	.	.	2B-\	.	.	.
1E	.	.	.	1c	.	.	.
=207	=207	=207	=207	=207	=207	=207	=207
1F	.	1A	-te-	1.d	te-	0f	Con-
0D	.	1.F	.	.	.	.	.
.	.	.	.	2A/	.	.	.
.	.	.	.	1B-	.	1f	-fi-
.	.	2E/	.	.	.	.	.
=208	=208	=208	=208	=208	=208	=208	=208
0C	or	1G	-or	0c	-or	1.e	-te-
.	.	1r	.	.	.	.	.
.	.	.	.	.	.	2d/	.
1r	.	1c	u-	1r	.	1e	.
=209	=209	=209	=209	=209	=209	=209	=209
0BB-	u-	0d	.	0F	u-	1f	.
.	.	.	.	.	.	0d	.
1BB-	-num	1B-	-num	1G	-num	.	.
=210	=210	=210	=210	=210	=210	=210	=210
1.AA	bap-	0c	bap-	1.A	bap-	0c	-or
2GG/	.	.	.	2E/	.	.	.
1AA	.	1C	.	1F	.	1r	.
=211	=211	=211	=211	=211	=211	=211	=211
1BB-	-tis-	1D	-tis-	1.G	-tis-	0B-	u-
0GG	.	0BB-	.	.	.	.	.
.	.	.	.	2D/	.	.	.
.	.	.	.	1E	.	1B-	num
=212	=212	=212	=212	=212	=212	=212	=212
0.FF	-ma	0.C	-ma,	0F	-ma,	1.A	bap-
.	.	.	.	.	.	2G/	.
.	.	.	.	1F	bap-	1A	.
=213	=213	=213	=213	=213	=213	=213	=213
0.r	.	0.r	.	1G	-tis-	1B-	-tis-
.	.	.	.	0B-	.	0G	.
=214	=214	=214	=214	=214	=214	=214	=214
0F	in	0c	in	0A	-ma	0.F	-ma
1F	re-	1d	re-	1D	in	.	.
=215	=215	=215	=215	=215	=215	=215	=215
1.E	-mis-	1.e	-mis-	1C	re-	0.r	.
.	.	.	.	0G	-mis-	.	.
2D\	.	2B-\	.	.	.	.	.
1E	-si-	1c	-si-	.	.	.	.
=216	=216	=216	=216	=216	=216	=216	=216
1F	-o-	1.d	-o-	1A	-si-	0f	in
0D	.	.	.	1.F	-o-	.	.
.	.	2A/	.	.	.	.	.
.	.	1B-	.	.	.	1f	re-
.	.	.	.	2E/	.	.	.
=217	=217	=217	=217	=217	=217	=217	=217
0C	-nem	0c	-nem	1G	-nem	1.e	-mis-
.	.	.	.	1r	.	.	.
.	.	.	.	.	.	2d/	.
1r	.	1r	.	1c	pec-	1e	-si-
=218	=218	=218	=218	=218	=218	=218	=218
0BB-	pec-	0F	pec-	0d	-ca-	1f	-o-
.	.	.	.	.	.	0d	.
1BB-	-ca-	1G	-ca-	1B-	.	.	.
=219	=219	=219	=219	=219	=219	=219	=219
1.AA	-to-	1.A	-to-	0c	-to-	0c	-nem
2GG/	.	2E/	.	.	.	.	.
1AA	.	1F	.	1C	.	1r	.
=220	=220	=220	=220	=220	=220	=220	=220
1BB-	.	1.G	.	1D	.	0B-	pec-
0GG	.	.	.	0BB-	.	.	.
.	.	2D/	.	.	.	.	.
.	.	1E	.	.	.	1B-	-ca-
=221	=221	=221	=221	=221	=221	=221	=221
0.FF	-rum.	0.F	-rum.	1C	-rum.	1.A	-to-
.	.	.	.	1r	.	.	.
.	.	.	.	.	.	2G/	.
.	.	.	.	1c	Et	1A	.
=222	=222	=222	=222	=222	=222	=222	=222
0.r	.	0.r	.	0d	ex-	1B-	.
.	.	.	.	.	.	0G	.
.	.	.	.	1B-	-spec-	.	.
=223	=223	=223	=223	=223	=223	=223	=223
1r	.	1r	.	1c	.	0.F	-rum.
1r	.	1r	.	0A	.	.	.
1F	Et	1c	Et	.	.	.	.
=224	=224	=224	=224	=224	=224	=224	=224
0G	ex-	1B-	ex-	0.G	-to	0.r	.
.	.	1.e-i	-spec-	.	.	.	.
1E	-spec-	.	.	.	.	.	.
.	.	2d\	.	.	.	.	.
=225	=225	=225	=225	=225	=225	=225	=225
1F	.	0c	.	0.r	.	1r	.
0D	.	.	.	.	.	1r	.
.	.	1Bni	.	.	.	1f	Et
=226	=226	=226	=226	=226	=226	=226	=226
0.C	-to	0.c	-to	1r	.	0g	ex-
.	.	.	.	1r	.	.	.
.	.	.	.	1c	re-	1e	-spec-
=227	=227	=227	=227	=227	=227	=227	=227
0.r	.	0.r	.	0d	-sur-	1f	.
.	.	.	.	.	.	0d	.
.	.	.	.	1B-	-rec-	.	.
=228	=228	=228	=228	=228	=228	=228	=228
1r	.	1r	.	1c	-ti-	0.c	-to
1r	.	1r	.	0A	-o-	.	.
1F	re-	1c	re-	.	.	.	.
=229	=229	=229	=229	=229	=229	=229	=229
0G	-sur-	1B-	-sur-	0.G	-nem	0.r	.
.	.	1.e-i	-rec-	.	.	.	.
1E	-rec-	.	.	.	.	.	.
.	.	2d\	-ti-	.	.	.	.
=230	=230	=230	=230	=230	=230	=230	=230
1F	-ti-	0c	-o-	0.r	.	1r	.
0D	-o-	.	.	.	.	1r	.
.	.	1Bni	.	.	.	1f	re-
=231	=231	=231	=231	=231	=231	=231	=231
0.C	nem	0.c	-nem	1r	.	0g	-sur-
.	.	.	.	1r	.	.	.
.	.	.	.	1c	mor-	1e	-rec-
=232	=232	=232	=232	=232	=232	=232	=232
1r	.	1r	.	1.d	.	1f	-ti-
1r	.	1r	.	.	.	0d	-o-
.	.	.	.	2c\	.	.	.
1BB-	mor-	1F	mor-	2B-\	-tu-	.	.
.	.	.	.	2A/	.	.	.
=233	=233	=233	=233	=233	=233	=233	=233
0C	.	1E	-tu-	1G	-o-	0c	-nem
.	.	1.A	-o-	0C	.	.	.
1AA	-tu-	.	.	.	.	1c	mor-
.	.	2G/	.	.	.	.	.
=234	=234	=234	=234	=234	=234	=234	=234
1BB-	-o-	0F	.	1D	.	1f	-tu-
0GG	.	.	.	1.BB-	.	1g	-o-
.	.	1E	.	.	.	1b-	.
.	.	.	.	2AA/	.	.	.
=235	=235	=235	=235	=235	=235	=235	=235
*M2/1	*	*M2/1	*	*M2/1	*	*M2/1	*
*met(Cr)	*	*met(C|)	*	*met(Cr)	*	*met(C|)	*
*rscale:2	*	*	*	*rscale:2	*	*	*
0FF	-rum.	[0F	-rum.	1C	-rum.	0a	-rum.
.	.	.	.	2r	.	.	.
.	.	.	.	2C/	Et	.	.
=236	=236	=236	=236	=236	=236	=236	=236
1r	.	0F]	.	1D	vi-	1.f	Et
1FF	Et	.	.	1C	.	.	.
.	.	.	.	.	.	4e/	.
.	.	.	.	.	.	4d/	.
=237	=237	=237	=237	=237	=237	=237	=237
2FF/	vi-	1r	.	0F	-tam,	2c/	vi-
1BB-	-tam	.	.	.	.	2d/	.
.	.	1F	Et	.	.	2B-/	.
2BB-/	ven-	.	.	.	.	2d/	.
=238	=238	=238	=238	=238	=238	=238	=238
2AA/	.	2F/	vi-	0r	.	2c/	.
2GG/	.	1B-	-tam	.	.	2d/	.
2.BB-/	-tu-	.	.	.	.	2B-/	.
.	.	2B-\	ven-	.	.	2d/	.
4AA/	.	.	.	.	.	.	.
=239	=239	=239	=239	=239	=239	=239	=239
2FF/	-ri	2A/	.	1C	et	1c	-tam
2C/	se-	1G	-tu-	.	.	.	.
2C/	-cu-	.	.	2C/	vi-	2r	.
[2FF/	-li,	2F/	-ri	[2F/	-tam	[2a/	ven-
=240	=240	=240	=240	=240	=240	=240	=240
4FF/]	.	2r	.	2F/]	.	2a/]	.
4GG/	.	.	.	.	.	.	.
4AA/	.	2c\	se-	2F/	ven-	2a/	-tu-
4BB-/	.	.	.	.	.	.	.
2C/	.	2c\	-cu-	2E/	.	2g/	-ri
2D\	se-	2F/	-li.	[2D/	-tu-	[2f/	se-
=241	=241	=241	=241	=241	=241	=241	=241
2BB-/	.	2r	.	2D/]	.	2f/]	.
2C/	.	1c	A-	2C/	-ri	2e/	.
1GG	-cu-	.	.	2G/	se-	1d	-cu-
.	.	2B-\	.	2G/	-cu-	.	.
=242	=242	=242	=242	=242	=242	=242	=242
1AA	-li.	2c\	.	1C	-li.	1c	-li.
.	.	2A/	-men,	.	.	.	.
2r	.	2r	.	2r	.	1d	.
[2GG/	A-	[2B-\	a-	[2G/	A-	.	.
=243	=243	=243	=243	=243	=243	=243	=243
2GG/]	.	2B-\]	.	2G/]	.	2r	.
2AA/	.	2A/	.	2F/	.	2c/	A-
2GG/	.	2B-\	.	2G/	.	2d/	.
2C/	-men,	2G/	-men,	2E/	-men,	2e/	.
=244	=244	=244	=244	=244	=244	=244	=244
2r	.	2r	.	2r	.	2c/	men,
1AA	a-	1c	a-	1A	a-	2r	.
.	.	.	.	.	.	2c/	a-
2BB-/	.	2B-\	.	2G/	.	2d/	.
=245	=245	=245	=245	=245	=245	=245	=245
2AA/	.	2c\	.	2A/	.	2e/	.
1D\	.	2A/	-men,	2F/	-men,	1f	.
.	.	2r	.	2r	.	.	.
2BB-/	.	[2B-\	a-	[2F/	a-	2d/	.
=246	=246	=246	=246	=246	=246	=246	=246
1C	.	2B-\]	.	2F/]	.	1e	.
.	.	2A/	.	2E/	.	.	.
2BB-/	.	2B-\	.	2F/	.	2d/	.
[2C/	.	2G/	-men,	2E/	-men,	[2e/	.
=247	=247	=247	=247	=247	=247	=247	=247
2C/]	.	2r	.	2r	.	2e/]	.
2AA/	.	1A	a-	1E	a-	2c/	.
1BB-	.	.	.	.	.	1d	.
.	.	2G/	.	2D/	.	.	.
=248	=248	=248	=248	=248	=248	=248	=248
2AA/	.	2A/	.	1E	-men,	1c	-men,
2.C/	.	2G/	.	.	.	.	.
.	.	2A/	.	2r	.	1r	.
4AA/	.	.	.	.	.	.	.
2BB-/	.	2G/	.	2D/	a-	.	.
=249	=249	=249	=249	=249	=249	=249	=249
2C/	.	2A/	.	2E/	.	0r	.
2D\	.	2F/	.	2F/	.	.	.
2BB-/	.	1G	-men,	2D/	.	.	.
2C/	.	.	.	2E/	-men,	.	.
=250	=250	=250	=250	=250	=250	=250	=250
1AA	.	2r	.	2r	.	1c	a-
.	.	1A	a-	1E	a-	.	.
1BB-	.	.	.	.	.	1d	.
.	.	2G/	.	2D/	.	.	.
=251	=251	=251	=251	=251	=251	=251	=251
2AA/	.	2A/	.	1E	-men,	2.c/	.
2.C/	.	2G/	.	.	.	.	.
.	.	.	.	.	.	4B-/	.
.	.	2A/	.	2r	.	2c/	.
4AA/	.	.	.	.	.	.	.
2BB-/	.	2G/	.	2D/	a-	2d/	.
=252	=252	=252	=252	=252	=252	=252	=252
2C/	.	2A/	.	2E/	.	2c/	.
2D\	.	2F/	.	2F/	.	1f	.
2BB-/	.	1G	.	2D/	.	.	.
2C/	.	.	.	2E/	.	2e/	.
=253	=253	=253	=253	=253	=253	=253	=253
2AA/	.	[0Fl	-men.	2C/	.	[0fl	-men.
2BB-/	.	.	.	2D/	.	.	.
2AA/	.	.	.	2C/	.	.	.
[2BB-/	.	.	.	[2D/	.	.	.
=254	=254	=254	=254	=254	=254	=254	=254
2BB-/]	.	0F_	.	4D/]	.	0f_	.
.	.	.	.	4BB-/	.	.	.
2AA/	.	.	.	2C/	.	.	.
2.BB-/	.	.	.	1D	.	.	.
4AA/	.	.	.	.	.	.	.
=255	=255	=255	=255	=255	=255	=255	=255
0FFl	-men.	0F]	.	0Cl	-men.	0f]	.
==	==	==	==	==	==	==	==
*rscale:1	*	*	*	*rscale:1	*	*	*
*-	*-	*-	*-	*-	*-	*-	*-
!!!RDF**kern: l=long note in original notation
!!!RDF**kern: i=editorial accidental
!!!RDF**kern: V=start of tuplet marker
!!!RDF**kern: Z=end of tuplet marker
!!!ENC: Jesse Rodin; 2011/09/04/
!!!END: 2011/09/04/
!!!SMS: Petrucci 1502
!!!EED: Jesse Rodin
!!!EEV: 2011/10/03/
!!attribution-level@Jos: 1 (secure, core group [checkmark])
!!!ONB: Translated from MusicXML and edited on 2011/10/03/ by Craig Sapp
!!muse2ps: T^@{OPR}^u^@{ONM}{. }@{OTL}^C^@{COM}^i2I150v90,90,90,120c122z18l2700t130
